icon-themes/breeze_svg/cmd/sc_shadowed.svg

<svg viewBox="0 0 16 16" xmlns="http://www.w3.org/2000/svg"><path d="m7.7558594 2.0214844 4.2441406 10.9785156h-1.373047l-.003906-.009766.001953.013672 2.001953.996094h1.373047l-4.2519531-11zm-.6933594 1.3066406-2.1210938 5.671875h2.3691407l.8945312-2.421875c-.4641597-1.3121616-1.0706747-3.0110338-1.1425781-3.25zm-2.515625 6.671875-1.1894531 3h-1.3574219l2 1h1.3574219l1.1894531-3h3.3125l-.3847656-1h-2.5332032z" fill="#b3b3b3"/><path d="m6.3828125 2-4.3828125 11h1.3574219l1.1894531-3h4.9277344l1.1523436 3h1.373047l-4.2519531-11zm.6796875 1.328125c.11316.37608.711475 2.0819644 1.796875 5.1152344l.2246094.5566406h-4.1425782z" fill="#4d4d4d"/></svg>

<svg xmlns="http://www.w3.org/2000/svg" viewBox="0 0 16 16">
 <path 
     style="fill:#b3b3b3" 
     d="M 7.7558594 2.0214844 L 12 13 L 10.626953 13 L 10.623047 12.990234 L 10.625 13.003906 L 12.626953 14 L 14 14 L 9.7480469 3 L 7.7558594 2.0214844 z M 7.0625 3.328125 L 4.9414062 9 L 7.3105469 9 L 8.2050781 6.578125 C 7.7409184 5.2659634 7.1344034 3.5670912 7.0625 3.328125 z M 4.546875 10 L 3.3574219 13 L 2 13 L 4 14 L 5.3574219 14 L 6.546875 11 L 9.859375 11 L 9.4746094 10 L 6.9414062 10 L 4.546875 10 z "
     />
 <path 
     style="fill:#4d4d4d" 
     d="M 6.3828125 2 L 2 13 L 3.3574219 13 L 4.546875 10 L 9.4746094 10 L 10.626953 13 L 12 13 L 7.7480469 2 L 6.3828125 2 z M 7.0625 3.328125 C 7.17566 3.704205 7.773975 5.4100894 8.859375 8.4433594 L 9.0839844 9 L 4.9414062 9 L 7.0625 3.328125 z "
     />
 </svg>
